Yaru++/apps/scalable/openshot.svg

<svg height="256" width="256" xmlns="http://www.w3.org/2000/svg" xmlns:xlink="http://www.w3.org/1999/xlink"><filter id="a" color-interpolation-filters="sRGB" height="1.024" width="1.024" x="-.01" y="-.01"><feGaussianBlur stdDeviation="1.12"/></filter><filter id="b" color-interpolation-filters="sRGB" height="1.096" width="1.096" x="-.05" y="-.05"><feGaussianBlur stdDeviation="4.48"/></filter><filter id="c" color-interpolation-filters="sRGB" height="1.023" width="1.026" x="-.01" y="-.01"><feGaussianBlur stdDeviation="1.133"/></filter><linearGradient id="d" gradientUnits="userSpaceOnUse" x1="132.62419508" x2="132.62419508" y1="71.76317284" y2="175.7536015"><stop offset="0" stop-opacity="0"/><stop offset=".505"/><stop offset="1" stop-opacity="0"/></linearGradient><circle cx="128.752" cy="127.248" filter="url(#b)" opacity=".1" r="112"/><circle cx="128.752" cy="125.248" filter="url(#a)" opacity=".1" r="112"/><circle cx="128.752" cy="123.248" opacity=".1" r="114"/><circle cx="128.752" cy="123.248" fill="#1463a5" r="112"/><path d="m16.751953 123.24805c.219543 2.63999.266428 5.98571.402344 8.91797a112 112 0 0 0 1.226562 10.11914 112 112 0 0 0 2.453125 10.92187 112 112 0 0 0 3.529297 10.625 112 112 0 0 0 4.574219 10.21875 112 112 0 0 0 5.570312 9.71094 112 112 0 0 0 6.511719 9.10742 112 112 0 0 0 7.388672 8.41016 112 112 0 0 0 8.191406 7.63086 112 112 0 0 0 8.91211 6.77539 112 112 0 0 0 9.544922 5.85156 112 112 0 0 0 10.080078 4.86914 112 112 0 0 0 10.517578 3.83984 112 112 0 0 0 10.847653 2.76953 112 112 0 0 0 11.06836 1.67188 112 112 0 0 0 11.05664.55469c1.00274-.00122 2.05955-.08622 3.07227-.09961a112 112 0 0 0 4.97461-.17578 112 112 0 0 0 11.11523-1.34766 112 112 0 0 0 10.92188-2.45312 112 112 0 0 0 10.625-3.5293 112 112 0 0 0 10.21875-4.57422 112 112 0 0 0 9.71093-5.57031 112 112 0 0 0 9.10743-6.51172 112 112 0 0 0 8.41015-7.38867 112 112 0 0 0 7.63086-8.19141 112 112 0 0 0 6.77539-8.91211 112 112 0 0 0 5.85157-9.54492 112 112 0 0 0 4.86914-10.08008 112 112 0 0 0 3.83984-10.51758 112 112 0 0 0 2.76953-10.84765 112 112 0 0 0 1.63867-10.83008c-.1976-4.0827-.28991-8.00416-.00586-11.41992z" fill="#fff" opacity=".1"/><path d="m128.752 11.248006a112 112 0 0 0 -112.000001 111.999994 112 112 0 0 0 .04102 1.16992 112 112 0 0 1 111.958981-111.169914 112 112 0 0 1 111.95898 110.830074 112 112 0 0 0 .041-.83008 112 112 0 0 0 -112-111.999994z" fill="#fff" opacity=".3"/><path d="m128.752 235.248a112 112 0 0 1 -112.000001-112 112 112 0 0 1 .04102-1.16992 112 112 0 0 0 111.958981 111.16992 112 112 0 0 0 111.95898-110.83008 112 112 0 0 1 .041.83008 112 112 0 0 1 -112 112z" opacity=".2"/><g transform="translate(-.553826 -.026917)"><path d="m88.488054 71.763169v105.306751s53.410266-21.58685 97.053216-52.68663c0-.01-.005-.0174-.0111-.0283-.005-.0115-.0117-.0229-.0197-.0345-.009-.0115-.0163-.0234-.0221-.0345-.006-.0115-.0111-.0231-.0111-.0333-46.03482-32.091539-96.989134-52.489469-96.989134-52.489469z" fill="url(#d)" opacity=".4" visibility="hidden"/><path d="m155.41127 137.99999v239.99999s121.72498-49.19762 221.18971-120.07579c0-.0217-.0115-.0398-.0253-.0645-.0115-.0263-.0264-.0523-.0448-.0786-.0191-.026-.0374-.0533-.0504-.0786-.0147-.0262-.0253-.0526-.0253-.0758-104.91599-73.13856-221.04372-119.62658-221.04372-119.62658z" filter="url(#c)" opacity=".1" transform="matrix(.43877818 0 0 .43877818 20.296981 11.211786)"/><g fill="#fff"><path d="m88.48805 70.88563v105.30676s53.41025-21.58686 97.05321-52.68665c0-.01-.005-.0165-.0113-.0299-.005-.01-.0117-.0232-.0196-.0345-.009-.01-.0162-.0232-.0222-.0345-.006-.01-.0113-.0232-.0113-.0332-46.03451-32.089999-96.988812-52.487935-96.988812-52.487935z"/><path d="m88.487804 70.88563v.877544s50.608256 20.25336 96.484666 52.142636c.18919-.13434.38009-.26568.56904-.40024 0-.01-.005-.0165-.0113-.0299-.005-.01-.0117-.0232-.0199-.0342-.009-.01-.0165-.0232-.0222-.0345-.006-.01-.0113-.0232-.0113-.0335-46.03477-32.091431-96.989358-52.489534-96.989358-52.489534z"/></g></g></svg>

<svg xmlns="http://www.w3.org/2000/svg" xmlns:osb="http://www.openswatchbook.org/uri/2009/osb" xmlns:xlink="http://www.w3.org/1999/xlink" width="256" height="256" version="1.1">
 <defs>
  <linearGradient id="linearGradient5606" osb:paint="solid">
   <stop id="stop5608" offset="0" style="stop-color:#000000"/>
  </linearGradient>
  <linearGradient id="linearGradient4526" osb:paint="solid">
   <stop id="stop4528" offset="0" style="stop-color:#ffffff"/>
  </linearGradient>
  <linearGradient id="linearGradient3600-4" osb:paint="gradient">
   <stop id="stop3602-7" offset="0" style="stop-color:#f4f4f4"/>
   <stop id="stop3604-6" offset="1" style="stop-color:#dbdbdb"/>
  </linearGradient>
  <clipPath id="clipPath1094" clipPathUnits="userSpaceOnUse">
   <path style="fill:url(#linearGradient1098)" d="M 188.96875,43.999998 C 261.6174,43.999998 272,54.356613 272,126.9375 v 58.125 C 272,257.64309 261.6174,268 188.96875,268 h -73.9375 C 42.3826,268 32,257.64309 32,185.0625 v -58.125 C 32,54.356613 42.3826,43.999998 115.03125,43.999998 Z"/>
  </clipPath>
  <clipPath id="clipPath1100" clipPathUnits="userSpaceOnUse">
   <path style="fill:url(#linearGradient1104)" d="M 188.96875,44 C 261.6174,44 272,54.356615 272,126.9375 v 58.125 C 272,257.64309 261.6174,268 188.96875,268 h -73.9375 C 42.3826,268 32,257.64309 32,185.0625 v -58.125 C 32,54.356615 42.3826,44 115.03125,44 Z"/>
  </clipPath>
  <filter style="color-interpolation-filters:sRGB" id="filter11191" width="1.024" height="1.024" x="-.01" y="-.01">
   <feGaussianBlur id="feGaussianBlur11193" stdDeviation="1.12"/>
  </filter>
  <filter style="color-interpolation-filters:sRGB" id="filter11210" width="1.096" height="1.096" x="-.05" y="-.05">
   <feGaussianBlur id="feGaussianBlur11212" stdDeviation="4.48"/>
  </filter>
  <linearGradient id="linearGradient1490" x1="33.076" x2="91.624" y1="210.425" y2="262.805" gradientTransform="matrix(2.1947377,0,0,2.1923444,-10.836741,-394.1216)" gradientUnits="userSpaceOnUse" xlink:href="#linearGradient1488"/>
  <linearGradient id="linearGradient1488">
   <stop style="stop-color:#ff8b00" id="stop1484" offset="0"/>
   <stop style="stop-color:#ffda2c" id="stop1486" offset="1"/>
  </linearGradient>
  <filter id="filter4460" width="1.026" height="1.023" x="-.01" y="-.01" style="color-interpolation-filters:sRGB">
   <feGaussianBlur id="feGaussianBlur7" stdDeviation="1.133"/>
  </filter>
  <linearGradient id="linearGradient4413" x1="256" x2="256" y1="138" y2="375" gradientTransform="matrix(0.43877818,0,0,0.43877818,20.296981,11.211784)" gradientUnits="userSpaceOnUse">
   <stop style="stop-color:#000000;stop-opacity:0" id="stop10" offset="0"/>
   <stop style="stop-color:#000000" id="stop12" offset=".505"/>
   <stop style="stop-color:#000000;stop-opacity:0" id="stop14" offset="1"/>
  </linearGradient>
 </defs>
 <circle style="opacity:0.1;filter:url(#filter11210)" cx="128.752" cy="127.248" r="112"/>
 <circle style="opacity:0.1;filter:url(#filter11191)" cx="128.752" cy="125.248" r="112"/>
 <circle style="opacity:0.1" cx="128.752" cy="123.248" r="114"/>
 <circle style="fill:#1463a5" cx="128.752" cy="123.248" r="112"/>
 <path style="opacity:0.1;fill:#ffffff" d="M 16.751953 123.24805 C 16.971496 125.88804 17.018381 129.23376 17.154297 132.16602 A 112 112 0 0 0 18.380859 142.28516 A 112 112 0 0 0 20.833984 153.20703 A 112 112 0 0 0 24.363281 163.83203 A 112 112 0 0 0 28.9375 174.05078 A 112 112 0 0 0 34.507812 183.76172 A 112 112 0 0 0 41.019531 192.86914 A 112 112 0 0 0 48.408203 201.2793 A 112 112 0 0 0 56.599609 208.91016 A 112 112 0 0 0 65.511719 215.68555 A 112 112 0 0 0 75.056641 221.53711 A 112 112 0 0 0 85.136719 226.40625 A 112 112 0 0 0 95.654297 230.24609 A 112 112 0 0 0 106.50195 233.01562 A 112 112 0 0 0 117.57031 234.6875 A 112 112 0 0 0 128.62695 235.24219 C 129.62969 235.24097 130.6865 235.15597 131.69922 235.14258 A 112 112 0 0 0 136.67383 234.9668 A 112 112 0 0 0 147.78906 233.61914 A 112 112 0 0 0 158.71094 231.16602 A 112 112 0 0 0 169.33594 227.63672 A 112 112 0 0 0 179.55469 223.0625 A 112 112 0 0 0 189.26562 217.49219 A 112 112 0 0 0 198.37305 210.98047 A 112 112 0 0 0 206.7832 203.5918 A 112 112 0 0 0 214.41406 195.40039 A 112 112 0 0 0 221.18945 186.48828 A 112 112 0 0 0 227.04102 176.94336 A 112 112 0 0 0 231.91016 166.86328 A 112 112 0 0 0 235.75 156.3457 A 112 112 0 0 0 238.51953 145.49805 A 112 112 0 0 0 240.1582 134.66797 C 239.9606 130.58527 239.86829 126.66381 240.15234 123.24805 L 16.751953 123.24805 z"/>
 <path style="opacity:0.3;fill:#ffffff" d="M 128.752,11.248006 A 112,112 0 0 0 16.751999,123.248 112,112 0 0 0 16.793019,124.41792 112,112 0 0 1 128.752,13.248006 112,112 0 0 1 240.71098,124.07808 a 112,112 0 0 0 0.041,-0.83008 112,112 0 0 0 -112,-111.999994 z"/>
 <path style="opacity:0.2" d="m 128.752,235.248 a 112,112 0 0 1 -112.000001,-112 112,112 0 0 1 0.04102,-1.16992 A 112,112 0 0 0 128.752,233.248 112,112 0 0 0 240.71098,122.41792 a 112,112 0 0 1 0.041,0.83008 112,112 0 0 1 -112,112 z"/>
 <g transform="translate(-0.5538263,-0.02691735)">
  <path d="M 88.488054,71.763169 V 177.06992 c 0,0 53.410266,-21.58685 97.053216,-52.68663 0,-0.01 -0.005,-0.0174 -0.0111,-0.0283 -0.005,-0.0115 -0.0117,-0.0229 -0.0197,-0.0345 -0.009,-0.0115 -0.0163,-0.0234 -0.0221,-0.0345 -0.006,-0.0115 -0.0111,-0.0231 -0.0111,-0.0333 C 139.44245,92.161151 88.488136,71.763221 88.488136,71.763221 Z" style="opacity:0.4;fill:url(#linearGradient4413);filter:url(#filter4415)"/>
  <path d="m 155.41127,137.99999 v 239.99999 c 0,0 121.72498,-49.19762 221.18971,-120.07579 0,-0.0217 -0.0115,-0.0398 -0.0253,-0.0645 -0.0115,-0.0263 -0.0264,-0.0523 -0.0448,-0.0786 -0.0191,-0.026 -0.0374,-0.0533 -0.0504,-0.0786 -0.0147,-0.0262 -0.0253,-0.0526 -0.0253,-0.0758 C 271.53919,184.48813 155.41146,138.00011 155.41146,138.00011 Z" transform="matrix(0.43877818,0,0,0.43877818,20.296981,11.211786)" style="opacity:0.1;filter:url(#filter4460)"/>
  <path d="m 88.48805,70.88563 v 105.30676 c 0,0 53.41025,-21.58686 97.05321,-52.68665 0,-0.01 -0.005,-0.0165 -0.0113,-0.0299 -0.005,-0.01 -0.0117,-0.0232 -0.0196,-0.0345 -0.009,-0.01 -0.0162,-0.0232 -0.0222,-0.0345 -0.006,-0.01 -0.0113,-0.0232 -0.0113,-0.0332 C 139.44235,91.283641 88.488048,70.885705 88.488048,70.885705 Z" style="fill:#ffffff"/>
  <path d="m 88.487804,70.88563 v 0.877544 c 0,0 50.608256,20.25336 96.484666,52.142636 0.18919,-0.13434 0.38009,-0.26568 0.56904,-0.40024 0,-0.01 -0.005,-0.0165 -0.0113,-0.0299 -0.005,-0.01 -0.0117,-0.0232 -0.0199,-0.0342 -0.009,-0.01 -0.0165,-0.0232 -0.0222,-0.0345 -0.006,-0.01 -0.0113,-0.0232 -0.0113,-0.0335 C 139.44204,91.282039 88.487452,70.883936 88.487452,70.883936 Z" style="fill:#ffffff"/>
 </g>
</svg>
